credit-card-marker.svg

<svg fill="currentColor" viewBox="0 0 24 24"><path d="M18.5 12c-1.9 0-3.5 1.6-3.5 3.5 0 2.6 3.5 6.5 3.5 6.5s3.5-3.9 3.5-6.5c0-1.9-1.6-3.5-3.5-3.5m0 4.8c-.7 0-1.2-.6-1.2-1.2 0-.7.6-1.2 1.2-1.2s1.2.6 1.2 1.2c.1.6-.5 1.2-1.2 1.2M14.55 20H4a2 2 0 0 1-2-2V6a2 2 0 0 1 2-2h16c1.11 0 2 .89 2 2v5.3a5.55 5.55 0 0 0-2-1.08V8H4v3h11.39C13.96 12 13 13.66 13 15.5c0 1.5.72 3.11 1.55 4.5"/></svg>

<svg  viewBox="0 0 24 24" fill="currentColor"><path  d="M18.5 12C16.6 12 15 13.6 15 15.5C15 18.1 18.5 22 18.5 22S22 18.1 22 15.5C22 13.6 20.4 12 18.5 12M18.5 16.8C17.8 16.8 17.3 16.2 17.3 15.6C17.3 14.9 17.9 14.4 18.5 14.4S19.7 15 19.7 15.6C19.8 16.2 19.2 16.8 18.5 16.8M14.55 20H4C2.9 20 2 19.11 2 18V6C2 4.89 2.9 4 4 4H20C21.11 4 22 4.89 22 6V11.3C21.42 10.81 20.74 10.44 20 10.22V8H4V11H15.39C13.96 12 13 13.66 13 15.5C13 17 13.72 18.61 14.55 20Z"/></svg>
